X:153
T:Clever Lad,The. RHu.149
T:Because He Was A Bonny Lad,aka. RHu.149
S:R.Hughes MS,1823,Whitchurch,Shrops.
A:Whitchurch, Shropshire
Z:Tony Weatherall 2006
M:2/4
L:1/8
Q:1/4=100
R:Reel
K:C
f|edcc’|bage|fage|d2d2|\
edcc’|bage|fage|c2c:|!
|:z|””ecgc|acgc|fage|d2d2|\
ecgc|c’age|fage|c2c:|

